incomeartour/img/icons/euro.svg

<svg width="35" height="35" viewBox="0 0 35 35" fill="none" xmlns="http://www.w3.org/2000/svg">
<g opacity="0.9">
<path d="M19.8019 2.11642L18.7853 2.0438C18.6037 2.0438 18.4585 1.93487 18.4222 1.78963L18.0227 0.845568C17.8775 0.482467 17.3692 0.482467 17.1876 0.845568L16.7882 1.78963C16.7156 1.93487 16.5703 2.0438 16.4251 2.0438L15.4084 2.11642C15.009 2.15273 14.8638 2.62476 15.1542 2.87893L15.9531 3.53252C16.062 3.64145 16.1346 3.823 16.0983 3.96824L15.8441 4.98492C15.7352 5.38433 16.1709 5.67481 16.4977 5.45695L17.3692 4.9123C17.5144 4.83968 17.696 4.83968 17.8412 4.9123L18.7126 5.45695C19.0394 5.67481 19.4751 5.34802 19.3662 4.98492L19.112 4.00455C19.0757 3.85931 19.112 3.67776 19.2573 3.56883L20.0561 2.91524C20.3466 2.66107 20.2014 2.15273 19.8019 2.11642Z" fill="black"/>
<path d="M12.0312 5.09405C11.9222 4.98512 11.8859 4.80357 11.9222 4.65833L12.249 3.67796C12.3943 3.31486 11.9949 2.95175 11.6318 3.13331L10.6877 3.56903C10.5425 3.64165 10.3609 3.60534 10.2157 3.53272L9.45315 2.91544C9.12636 2.66127 8.69064 2.95175 8.72695 3.31486L8.87219 4.33154C8.9085 4.51309 8.83588 4.65833 8.69064 4.76726L7.85551 5.34822C7.52872 5.56608 7.63765 6.07442 8.03706 6.14704L9.05374 6.32859C9.19898 6.3649 9.34422 6.47383 9.38053 6.65539L9.67102 7.63576C9.77995 7.99886 10.2883 8.07148 10.4698 7.70838L10.9782 6.80063C11.0508 6.65539 11.196 6.58277 11.3776 6.58277L12.3943 6.61908C12.7937 6.61908 13.0115 6.14704 12.7211 5.85656L12.0312 5.09405Z" fill="black"/>
<path d="M3.31721 10.5036C3.42614 10.6489 3.42614 10.8304 3.35352 10.9757L2.9178 11.9197C2.73625 12.2828 3.09935 12.6459 3.46245 12.537L4.44283 12.2102C4.58807 12.1376 4.76962 12.2102 4.87855 12.3191L5.64106 13.009C5.93154 13.2632 6.40357 13.0816 6.40357 12.6822L6.36726 11.6656C6.36726 11.484 6.43988 11.3388 6.58512 11.2661L7.49288 10.7578C7.85598 10.5763 7.78336 10.0679 7.42026 9.95898L6.43988 9.6685C6.29464 9.63219 6.1494 9.48695 6.11309 9.34171L5.93154 8.32502C5.85892 7.92561 5.35058 7.81668 5.13272 8.14347L4.55176 8.97861C4.44283 9.12385 4.29759 9.19647 4.11604 9.16016L3.09935 9.01492C2.69994 8.97861 2.44577 9.41433 2.69994 9.74112L3.31721 10.5036Z" fill="black"/>
<path d="M3.35332 19.4733C3.46225 19.3644 3.6438 19.2917 3.78904 19.328L4.80572 19.5822C5.20513 19.6911 5.49561 19.2554 5.27775 18.9286L4.7331 18.0572C4.66048 17.912 4.66048 17.7304 4.7331 17.5852L5.27775 16.7137C5.49561 16.3869 5.16882 15.9512 4.80572 16.0601L3.78904 16.3143C3.6438 16.3506 3.46225 16.3143 3.35332 16.1691L2.69973 15.3339C2.44556 15.0435 1.93722 15.1887 1.93722 15.5881L1.8646 16.6048C1.8646 16.7863 1.75567 16.9316 1.61043 16.9679L0.666369 17.3673C0.303268 17.5125 0.303268 18.0209 0.666369 18.2024L1.61043 18.6018C1.75567 18.6745 1.8646 18.8197 1.8646 18.9649L1.93722 19.9816C1.97353 20.381 2.44556 20.5263 2.69973 20.2358L3.35332 19.4733Z" fill="black"/>
<path d="M7.49305 24.9188L6.58529 24.4105C6.44005 24.3379 6.36743 24.1926 6.36743 24.0111L6.40374 22.9944C6.40374 22.595 5.93171 22.3771 5.64123 22.6676L4.87872 23.3575C4.76979 23.4664 4.58824 23.5027 4.443 23.4664L3.46263 23.1396C3.09952 22.9944 2.73642 23.3938 2.91797 23.7569L3.35369 24.701C3.42631 24.8462 3.39 25.0277 3.31738 25.173L2.70011 25.9355C2.44594 26.2623 2.73642 26.698 3.09952 26.6617L4.11621 26.5165C4.29776 26.4802 4.443 26.5528 4.55193 26.698L5.13289 27.5331C5.35075 27.8599 5.85909 27.751 5.93171 27.3516L6.11326 26.3349C6.14957 26.1534 6.2585 26.0444 6.44005 26.0081L7.42043 25.7176C7.78353 25.6087 7.85615 25.1004 7.49305 24.9188Z" fill="black"/>
<path d="M12.3943 29.0224L11.3776 29.0587C11.196 29.0587 11.0508 28.9861 10.9782 28.8408L10.4698 27.9331C10.2883 27.57 9.77995 27.6426 9.67102 28.0057L9.38053 28.9861C9.34422 29.1313 9.19898 29.2765 9.05374 29.3128L8.03706 29.4944C7.63765 29.567 7.52872 30.0754 7.85551 30.2932L8.69064 30.8742C8.83588 30.9831 8.9085 31.1283 8.87219 31.3099L8.72695 32.3266C8.69064 32.726 9.12636 32.9802 9.45316 32.726L10.2883 32.1087C10.4335 31.9998 10.6151 31.9998 10.7603 32.0724L11.7044 32.5081C12.0675 32.6897 12.4306 32.3266 12.3217 31.9635L11.9949 30.9831C11.9222 30.8379 11.9949 30.6563 12.1038 30.5474L12.7937 29.7849C13.0115 29.4581 12.7937 28.9861 12.3943 29.0224Z" fill="black"/>
<path d="M19.2573 32.0351C19.1484 31.9262 19.0758 31.7446 19.1121 31.5994L19.3663 30.5827C19.4752 30.1833 19.0395 29.8928 18.7127 30.1107L17.8412 30.6553C17.696 30.728 17.5145 30.728 17.3692 30.6553L16.4978 30.1107C16.171 29.8928 15.7353 30.2196 15.8442 30.5827L16.0984 31.5994C16.1347 31.7446 16.0984 31.9262 15.9531 32.0351L15.118 32.6887C14.8275 32.9429 14.9728 33.4512 15.3722 33.4512L16.3888 33.5238C16.5704 33.5238 16.7156 33.6328 16.7519 33.778L17.1514 34.7221C17.2966 35.0852 17.8049 35.0852 17.9865 34.7221L18.3859 33.778C18.4585 33.6328 18.6038 33.5238 18.749 33.5238L19.7657 33.4512C20.1651 33.4149 20.3103 32.9429 20.0199 32.6887L19.2573 32.0351Z" fill="black"/>
<path d="M27.1728 29.4578L26.1561 29.2762C26.0109 29.2399 25.8657 29.131 25.8293 28.9494L25.5026 27.9691C25.3936 27.606 24.8853 27.5333 24.7037 27.8964L24.1954 28.8042C24.1228 28.9494 23.9775 29.022 23.796 29.022L22.7793 28.9857C22.3799 28.9857 22.162 29.4578 22.4525 29.7483L23.1424 30.5108C23.2513 30.6197 23.2876 30.8012 23.2513 30.9465L22.9245 31.9269C22.7793 32.29 23.1787 32.6531 23.5418 32.4715L24.4859 32.0358C24.6311 31.9632 24.8127 31.9995 24.9579 32.0721L25.793 32.6894C26.1198 32.9435 26.5555 32.6531 26.5192 32.29L26.3014 31.2733C26.2651 31.0917 26.3377 30.9465 26.4829 30.8376L27.3181 30.2566C27.6448 30.0387 27.5359 29.5304 27.1728 29.4578Z" fill="black"/>
<path d="M31.8568 25.1002C31.7478 24.955 31.7478 24.7734 31.8205 24.6282L32.2562 23.6841C32.4377 23.321 32.0746 22.9579 31.7115 23.0669L30.7312 23.3937C30.5859 23.4663 30.4044 23.3937 30.2954 23.2847L29.5329 22.5948C29.2424 22.3407 28.7704 22.5222 28.7704 22.9216L28.8067 23.9383C28.8067 24.1199 28.7341 24.2651 28.5889 24.3377L27.6811 24.8461C27.318 25.0276 27.3906 25.536 27.7537 25.6449L28.7341 25.9354C28.8793 25.9717 29.0246 26.1169 29.0609 26.2622L29.2424 27.2788C29.3151 27.6783 29.8234 27.7872 30.0413 27.4604L30.6222 26.6253C30.7312 26.48 30.8764 26.4074 31.0579 26.4437L32.0746 26.589C32.474 26.6253 32.7282 26.1895 32.474 25.8627L31.8568 25.1002Z" fill="black"/>
<path d="M34.5435 17.4034L33.5994 17.004C33.4542 16.9314 33.3453 16.7862 33.3453 16.6409L33.2726 15.6242C33.2363 15.2248 32.7643 15.0796 32.5101 15.3701L31.8565 16.1689C31.7476 16.2778 31.5661 16.3504 31.4208 16.3141L30.4041 16.06C30.0047 15.951 29.7142 16.3867 29.9321 16.7135L30.4768 17.585C30.5494 17.7302 30.5494 17.9118 30.4768 18.057L29.9321 18.9285C29.7142 19.2552 30.041 19.691 30.4041 19.582L31.4208 19.3279C31.5661 19.2916 31.7476 19.3279 31.8565 19.4731L32.5101 20.2719C32.7643 20.5624 33.2726 20.4172 33.2726 20.0178L33.3453 19.0011C33.3453 18.8195 33.4542 18.6743 33.5994 18.638L34.5435 18.2386C34.9429 18.057 34.9429 17.5487 34.5435 17.4034Z" fill="black"/>
<path d="M27.6811 10.6855L28.5889 11.1939C28.7341 11.2665 28.8067 11.4117 28.8067 11.5933L28.7704 12.61C28.7704 13.0094 29.2424 13.2272 29.5329 12.9368L30.2954 12.2469C30.4044 12.1379 30.5859 12.1016 30.7312 12.1379L31.7115 12.4647C32.0746 12.61 32.4377 12.2106 32.2562 11.8475L31.8205 10.9034C31.7478 10.7582 31.7841 10.5766 31.8568 10.4314L32.474 9.59623C32.7282 9.26944 32.4377 8.83372 32.0746 8.87003L31.0579 9.08789C30.8764 9.1242 30.7312 9.05158 30.6222 8.90634L30.0413 8.07121C29.8234 7.74442 29.3151 7.85335 29.2424 8.25276L29.0609 9.26944C29.0246 9.45099 28.9156 9.55992 28.7341 9.59623L27.7537 9.88671C27.3906 9.99564 27.318 10.504 27.6811 10.6855Z" fill="black"/>
<path d="M22.779 6.58289L23.7957 6.54658C23.9773 6.54658 24.1225 6.6192 24.1951 6.76445L24.7035 7.6722C24.885 8.0353 25.3934 7.96268 25.5023 7.59958L25.7928 6.6192C25.8291 6.47396 25.9743 6.32872 26.1196 6.29241L27.1363 6.11086C27.5357 6.03824 27.6446 5.5299 27.3178 5.31204L26.4827 4.73108C26.3374 4.62215 26.2648 4.47691 26.3011 4.29536L26.4464 3.27867C26.4827 2.87926 26.047 2.62509 25.7202 2.87926L24.885 3.49654C24.7398 3.60547 24.5582 3.60547 24.413 3.53285L23.4689 3.09712C23.1058 2.91557 22.7427 3.27867 22.8517 3.64178L23.1785 4.62215C23.2511 4.76739 23.1785 4.94894 23.0695 5.05787L22.3796 5.82038C22.1618 6.14717 22.3796 6.6192 22.779 6.58289Z" fill="black"/>
<path d="M14.2973 17.0697C13.7811 17.0697 13.3114 16.9613 12.8881 16.7445C12.4751 16.5277 12.1447 16.2335 11.897 15.8618C11.6595 15.4902 11.5408 15.0772 11.5408 14.6229C11.5408 14.1687 11.6595 13.7557 11.897 13.384C12.1447 13.0124 12.4751 12.7181 12.8881 12.5013C13.3114 12.2845 13.7811 12.1761 14.2973 12.1761C14.8135 12.1761 15.2781 12.2845 15.6911 12.5013C16.1143 12.7181 16.4447 13.0124 16.6822 13.384C16.9299 13.7557 17.0538 14.1687 17.0538 14.6229C17.0538 15.0772 16.9299 15.4902 16.6822 15.8618C16.4447 16.2335 16.1143 16.5277 15.6911 16.7445C15.2781 16.9613 14.8135 17.0697 14.2973 17.0697ZM14.2973 15.676C14.4315 15.676 14.5554 15.6295 14.669 15.5366C14.7825 15.4334 14.8703 15.3043 14.9322 15.1495C15.0045 14.9843 15.0406 14.8088 15.0406 14.6229C15.0406 14.4268 15.0045 14.2513 14.9322 14.0964C14.8703 13.9416 14.7825 13.8177 14.669 13.7247C14.5554 13.6215 14.4315 13.5699 14.2973 13.5699C14.1631 13.5699 14.0392 13.6215 13.9256 13.7247C13.8121 13.8177 13.7192 13.9416 13.6469 14.0964C13.5849 14.2513 13.554 14.4268 13.554 14.6229C13.554 14.8088 13.5849 14.9843 13.6469 15.1495C13.7192 15.3043 13.8121 15.4334 13.9256 15.5366C14.0392 15.6295 14.1631 15.676 14.2973 15.676ZM20.9409 23.481C20.4246 23.481 19.9549 23.3726 19.5316 23.1558C19.1187 22.939 18.7883 22.6448 18.5405 22.2731C18.303 21.9014 18.1843 21.4885 18.1843 21.0342C18.1843 20.5799 18.303 20.167 18.5405 19.7953C18.7883 19.4236 19.1187 19.1294 19.5316 18.9126C19.9549 18.6958 20.4246 18.5874 20.9409 18.5874C21.4571 18.5874 21.9216 18.6958 22.3346 18.9126C22.7579 19.1294 23.0883 19.4236 23.3257 19.7953C23.5735 20.167 23.6974 20.5799 23.6974 21.0342C23.6974 21.4885 23.5735 21.9014 23.3257 22.2731C23.0883 22.6448 22.7579 22.939 22.3346 23.1558C21.9216 23.3726 21.4571 23.481 20.9409 23.481ZM20.9409 22.0873C21.0751 22.0873 21.199 22.0408 21.3125 21.9479C21.4261 21.8446 21.5138 21.7156 21.5758 21.5607C21.6481 21.3955 21.6842 21.22 21.6842 21.0342C21.6842 20.838 21.6481 20.6625 21.5758 20.5077C21.5138 20.3528 21.4261 20.2289 21.3125 20.136C21.199 20.0328 21.0751 19.9811 20.9409 19.9811C20.8066 19.9811 20.6828 20.0328 20.5692 20.136C20.4556 20.2289 20.3627 20.3528 20.2904 20.5077C20.2285 20.6625 20.1975 20.838 20.1975 21.0342C20.1975 21.22 20.2285 21.3955 20.2904 21.5607C20.3627 21.7156 20.4556 21.8446 20.5692 21.9479C20.6828 22.0408 20.8066 22.0873 20.9409 22.0873ZM12.8416 22.3195L17.2242 17.3795L21.1112 12.1606L22.3965 13.3221L18.1998 18.1073L14.127 23.481L12.8416 22.3195Z" fill="black"/>
</g>
</svg>

<svg width="35" height="35" fill="none" xmlns="http://www.w3.org/2000/svg"><path d="M19.802 2.116l-1.017-.072c-.181 0-.326-.11-.363-.254l-.4-.944c-.144-.364-.653-.364-.834 0l-.4.944c-.072.145-.218.254-.363.254l-1.017.072a.433.433 0 00-.254.763l.8.654c.108.108.18.29.144.435l-.254 1.017c-.109.4.327.69.654.472l.871-.545a.539.539 0 01.472 0l.872.545c.326.218.762-.109.653-.472l-.254-.98a.417.417 0 01.145-.436l.8-.654c.29-.254.144-.762-.255-.799zm-7.771 2.978c-.109-.109-.145-.29-.109-.436l.327-.98c.145-.363-.254-.726-.617-.545l-.944.436c-.146.073-.327.036-.472-.036l-.763-.618c-.327-.254-.762.037-.726.4l.145 1.017c.037.181-.036.326-.181.435l-.835.581c-.327.218-.218.726.181.799l1.017.182a.43.43 0 01.327.326l.29.98c.109.364.617.436.799.073l.508-.907c.073-.146.218-.218.4-.218l1.016.036c.4 0 .617-.472.327-.762l-.69-.763zm-8.714 5.41a.447.447 0 01.037.472l-.436.944c-.182.363.181.726.544.617l.98-.327c.146-.072.328 0 .437.11l.762.689c.29.254.763.073.763-.327l-.037-1.016c0-.182.073-.327.218-.4l.908-.508c.363-.182.29-.69-.073-.799l-.98-.29a.491.491 0 01-.327-.327l-.181-1.017c-.073-.4-.581-.508-.8-.182l-.58.836c-.11.145-.254.217-.436.181l-1.017-.145a.447.447 0 00-.4.726l.618.763zm.036 8.969c.11-.109.29-.181.436-.145l1.017.254c.4.11.69-.327.472-.653l-.545-.872a.539.539 0 010-.472l.545-.871c.218-.327-.11-.763-.472-.654l-1.017.254a.417.417 0 01-.436-.145l-.653-.835c-.254-.29-.763-.145-.763.254l-.072 1.017c0 .181-.11.327-.255.363l-.944.4c-.363.145-.363.653 0 .834l.944.4c.146.072.255.218.255.363l.072 1.017a.434.434 0 00.763.254l.653-.763zm4.14 5.446l-.908-.509c-.145-.072-.218-.217-.218-.399l.037-1.017c0-.399-.472-.617-.763-.326l-.762.69c-.11.108-.29.145-.436.108l-.98-.326c-.363-.146-.727.254-.545.617l.436.944c.072.145.036.327-.037.472l-.617.763c-.254.326.036.762.4.726l1.016-.145c.182-.037.327.036.436.181l.58.835c.219.327.727.218.8-.181l.181-1.017a.385.385 0 01.327-.327l.98-.29c.364-.11.436-.618.073-.8zm4.901 4.103l-1.016.037c-.182 0-.327-.073-.4-.218l-.508-.908c-.182-.363-.69-.29-.799.073l-.29.98a.491.491 0 01-.327.327l-1.017.181c-.4.073-.508.581-.181.8l.835.58c.145.11.217.254.181.436l-.145 1.017c-.036.399.4.653.726.399l.835-.617a.447.447 0 01.472-.037l.944.436c.364.182.727-.181.618-.545l-.327-.98c-.073-.145 0-.327.109-.436l.69-.762c.217-.327 0-.799-.4-.763zm6.863 3.013c-.109-.109-.181-.29-.145-.436l.254-1.016a.428.428 0 00-.653-.472l-.872.544a.538.538 0 01-.472 0l-.871-.544c-.327-.218-.763.109-.654.472l.254 1.016a.417.417 0 01-.145.436l-.835.654c-.29.254-.145.762.254.762l1.017.073c.181 0 .327.109.363.254l.4.944c.145.363.653.363.834 0l.4-.944c.073-.145.218-.254.363-.254l1.017-.073a.433.433 0 00.254-.762l-.763-.654zm7.916-2.577l-1.017-.182a.43.43 0 01-.327-.327l-.326-.98c-.11-.363-.618-.436-.8-.073l-.508.908c-.072.145-.218.218-.399.218l-1.017-.036c-.4 0-.617.472-.326.762l.69.763c.108.109.145.29.108.436l-.327.98c-.145.363.255.726.618.544l.944-.435c.145-.073.327-.037.472.036l.835.617c.327.255.762-.036.726-.399l-.218-1.017c-.036-.181.037-.326.182-.435l.835-.581c.327-.218.218-.727-.145-.8zm4.684-4.358a.446.446 0 01-.037-.472l.436-.944c.182-.363-.181-.726-.544-.617l-.98.327c-.146.072-.328 0-.437-.11l-.762-.69c-.29-.253-.763-.072-.763.328l.037 1.016c0 .182-.073.327-.218.4l-.908.508c-.363.182-.29.69.073.799l.98.29c.145.037.29.182.327.327l.181 1.017c.073.4.581.508.8.181l.58-.835c.11-.145.254-.218.436-.181l1.017.145c.399.036.653-.4.399-.726l-.617-.763zm2.687-7.697l-.945-.399c-.145-.073-.254-.218-.254-.363l-.072-1.017a.433.433 0 00-.763-.254l-.653.799c-.11.109-.29.181-.436.145l-1.017-.254a.428.428 0 00-.472.654l.545.871a.539.539 0 010 .472l-.545.872c-.218.326.109.762.472.653l1.017-.254a.417.417 0 01.436.145l.653.799c.254.29.763.145.763-.254L33.345 19c0-.181.11-.327.254-.363l.945-.4c.399-.181.399-.69 0-.835zm-6.863-6.718l.908.509c.145.072.218.218.218.4l-.037 1.016c0 .4.472.617.763.327l.762-.69a.477.477 0 01.436-.11l.98.328c.364.145.727-.254.545-.617l-.436-.945c-.072-.145-.036-.326.037-.472l.617-.835c.254-.327-.036-.762-.4-.726l-1.016.218c-.182.036-.327-.036-.436-.182l-.58-.835c-.219-.327-.727-.218-.8.182l-.181 1.016a.385.385 0 01-.327.327l-.98.29c-.363.11-.436.618-.073.8zm-4.902-4.102l1.017-.036c.181 0 .326.072.4.217l.507.908c.182.363.69.29.8-.072l.29-.98a.49.49 0 01.327-.328l1.016-.181c.4-.073.509-.581.182-.799l-.835-.58c-.146-.11-.218-.255-.182-.437l.145-1.016a.446.446 0 00-.726-.4l-.835.618a.446.446 0 01-.472.036l-.944-.436c-.363-.181-.726.182-.617.545l.326.98c.073.145 0 .327-.108.436l-.69.762c-.218.327 0 .8.399.763zM14.297 17.07c-.516 0-.986-.109-1.409-.326a2.644 2.644 0 01-.991-.882 2.253 2.253 0 01-.356-1.24c0-.453.118-.866.356-1.238.248-.372.578-.666.991-.883a3.046 3.046 0 011.41-.325c.515 0 .98.108 1.393.325a2.5 2.5 0 01.991.883c.248.372.372.785.372 1.239 0 .454-.124.867-.372 1.239a2.499 2.499 0 01-.99.882 2.953 2.953 0 01-1.395.326zm0-1.394a.575.575 0 00.372-.14c.114-.103.201-.232.263-.386.072-.166.109-.341.109-.527a1.23 1.23 0 00-.109-.527.902.902 0 00-.263-.371.542.542 0 00-.372-.155.542.542 0 00-.371.155 1.039 1.039 0 00-.28.371c-.061.155-.092.33-.092.527 0 .186.03.361.093.527.072.154.165.283.279.387a.577.577 0 00.371.139zm6.644 7.805c-.516 0-.986-.108-1.41-.325a2.646 2.646 0 01-.99-.883 2.253 2.253 0 01-.357-1.239c0-.454.119-.867.357-1.239a2.64 2.64 0 01.99-.882 3.046 3.046 0 011.41-.326c.516 0 .98.109 1.394.326.423.216.753.51.99.882.248.372.372.785.372 1.24 0 .453-.123.866-.371 1.238a2.497 2.497 0 01-.991.883 2.952 2.952 0 01-1.394.325zm0-1.394a.574.574 0 00.372-.14c.113-.102.2-.231.263-.386.072-.166.108-.341.108-.527a1.23 1.23 0 00-.108-.526.9.9 0 00-.264-.372.542.542 0 00-.371-.155.542.542 0 00-.372.155 1.036 1.036 0 00-.279.372c-.061.155-.092.33-.092.526 0 .186.03.361.092.527.073.155.166.284.28.387.113.093.237.14.37.14zm-8.1.233l4.383-4.94 3.887-5.22 1.285 1.162-4.196 4.785-4.073 5.374-1.285-1.162z" opacity=".9" fill="#000"/></svg>
